X:1
T:Holy, Holy, Is What the Angels Sing
T:Holy, Holy, Is What the Angels Sing
T:John Robson Sweney
T:Johnson Oatman, Jr., 1894
T:Public Domain Courtesy of the Cyber Hymnal™
T:Public Domain Courtesy of the Cyber Hymnal™
C:John Robson Sweney
Z:Public Domain
Z:Courtesy of the Cyber Hymnal™
%%score ( 1 2 ) 3
L:1/8
Q:1/4=100
M:4/4
K:D
V:1 treble 
V:2 treble 
V:3 bass 
V:1
 D[DE] | [DF][FA][FA][GB] [FA][DF][A,E][A,D] | [DF][DF][CE][CE] !fermata!D2 [FA][FA] | %3
w: 1.~There is|sing- ing up in Hea- ven such as|we have ne- ver known, Where the|
w: 2.~But I|hear an- o- ther an- them, blend- ing|voic- es clear and strong, “Un- to|
w: 3.~Then the|an- gels stand and list- en, for they|can- not join the song, Like the|
w: 4.~So, al-|though I’m not an an- gel, yet I|know that o- ver there I will|
 [Fd][Fd][Gd][GB] [GB][FA]D[DE] | [DF][DA][DA][DF] !fermata![CE]2 [CE][DF] | %5
w: an- gels sing the prais- es of the|Lamb up- on the throne, Their sweet|
w: Him Who hath re- deemed us and hath|bought us,” is the song; We have|
w: sound of ma- ny wa- ters, by that|hap- py, blood washed throng, For they|
w: join a bless- èd chor- us that the|an- gels can- not share; I will|
 [CG][CG][Gc][GB] [GB][FA][CE][DF] | [CG][CG][Gc][GB] !fermata![FA]2 [FA][FA] | %7
w: harps are ev- er tune- ful, and their|voic- es al- ways clear, O that|
w: come through trib- u- la- tion to this|land so fair and bright, In the|
w: sing a- bout great tri- als, bat- tles|fought and vic- tories won, And they|
w: sing a- bout my Sav- ior, who up-|on dark Cal- va- ry Free- ly|
 [Fd][Fd][Ac][GB] [GB][FA][DF][DA] | [CA][CA][CG][CE] D4 || %9
w: we might be more like them while we|serve the Mas- ter here!|
w: fount- ain free- ly flow- ing He hath|made our gar- ments white.|
w: praise their great Re- deem- er, who hath|said to them, “Well done.”|
w: par- doned my trans- gress- ions, died to|set a sin- ner free.|
"^Refrain" !fermata![DA]2 !fermata![DA]2 [CA]2 !fermata![CG][CE] | DD[CE][CE] [DF]3 [DA] | %11
w: ||
w: Ho- ly, ho- ly, is|what the an- gels sing, And|
w: ||
w: ||
 [DB][DB][DB][DB] [DA][DA][Fd][Fd] | [Ec][Ec][DB][DB] [CA]3 [CA] | %13
w: ||
w: I ex- pect to help them make the|courts of Hea- ven ring; But|
w: ||
w: ||
 [CG][Gc][Gc][GB] [FA][Fd][Fd][DF] | [CA][CG][CE][CA] [DF]3 [DA] | %15
w: ||
w: when I sing re- demp- tion’s sto- ry,|they will fold their wings, For|
w: ||
w: ||
 [DB][DB][DA][DA] [Gc][Gc]!fermata![Fd][DF] | [CA][CA][CG][CE] D2 |] %17
w: ||
w: an- gels ne- ver felt the joys that|our sal- va- tion brings.|
w: ||
w: ||
V:2
 x2 | x8 | x4 D2 x2 | x8 | x8 | x8 | x8 | x8 | x4 D4 || x8 | x8 | x8 | x8 | x8 | x8 | x8 | x4 D2 |] %17
V:3
 [D,F,][D,G,] | [D,A,][D,D][D,D][D,D] [D,D][D,A,][D,G,][D,F,] | %2
 [A,,A,][A,,A,][A,,G,][A,,G,] !fermata![D,F,]2 [D,D][D,D] | %3
 [D,A,][D,A,][D,B,][D,D] [D,D][D,D][D,F,][D,G,] | %4
 [D,A,][F,A,][F,A,][D,A,] !fermata![A,,A,]2 [G,A,][F,A,] | %5
 [E,A,][E,A,][A,,A,][A,,C] [D,D][D,D][G,A,][F,A,] | %6
 [E,A,][E,A,][A,,A,][A,,C] !fermata![D,D]2 [D,D][D,D] | %7
 [D,A,][D,A,][D,D][D,D] [D,D][D,D][D,A,][D,F,] | [A,,E,][A,,E,][A,,E,][A,,G,] [D,F,]4 || %9
 !fermata![D,F,]2 !fermata![D,F,]2 [A,,E,]2 !fermata![A,,A,][A,,G,] | %10
 [B,,F,][B,,F,][A,,A,][A,,A,] [D,A,]3 [D,F,] | G,G,G,G, [F,A,][F,A,][D,A,][D,A,] | %12
 [E,A,][E,A,][E,^G,]E, [A,,E,]3 [A,,E,] | [A,,A,][A,,A,][A,,A,][A,,C] [D,D][D,A,][D,A,][D,A,] | %14
 [A,,A,][A,,E,][A,,A,][A,,A,] [D,A,]3 [F,A,] | G,G,[F,A,][F,A,] [E,A,][E,A,]!fermata![D,A,][D,A,] | %16
 [A,,A,][A,,E,][A,,A,][A,,G,] [D,F,]2 |] %17

